Suru++-Ubuntu/apps/scalable/steam.svg

<svg width="256" height="256" version="1.1" viewBox="0 0 67.73 67.73" xmlns="http://www.w3.org/2000/svg" xmlns:xlink="http://www.w3.org/1999/xlink">
 <defs>
  <clipPath id="clipPath1082-3-5">
   <path d="M 361.9375,-212 C 507.2348,-212 528,-191.28677 528,-46.125 V 70.125 C 528,215.28618 507.2348,236 361.9375,236 H 214.0625 C 68.7652,236 48,215.28618 48,70.125 V -46.125 C 48,-191.28677 68.7652,-212 214.0625,-212 Z" style="fill:#8c59d9"/>
  </clipPath>
  <filter id="filter4569-2" x="-.01" y="-.01" width="1.023" height="1.025" style="color-interpolation-filters:sRGB">
   <feGaussianBlur stdDeviation="1.16"/>
  </filter>
  <filter id="filter913" x="-.02" y="-.03" width="1.046" height="1.05" style="color-interpolation-filters:sRGB">
   <feGaussianBlur stdDeviation="2.32"/>
  </filter>
  <linearGradient id="linearGradient906" x1="296" x2="296" y1="-212" y2="236" gradientUnits="userSpaceOnUse">
   <stop style="stop-color:#ffffff" offset="0"/>
   <stop style="stop-color:#ffffff;stop-opacity:.09803922" offset=".125"/>
   <stop style="stop-color:#000000;stop-opacity:.09803922" offset=".925"/>
   <stop style="stop-color:#000000;stop-opacity:.49803922" offset="1"/>
  </linearGradient>
 </defs>
 <g transform="translate(0,-229.26666)">
  <path transform="matrix(.26970778 0 0 .26970778 -7.1289177 220.56049)" d="m188.96876 45.999995c72.64865 0 83.03125 10.356615 83.03125 82.937505v58.125c0 72.58059-10.3826 82.9375-83.03125 82.9375h-73.9375c-72.648654 0-83.031254-10.35691-83.031254-82.9375v-58.125c0-72.58089 10.3826-82.937505 83.031254-82.937505z" style="filter:url(#filter913);opacity:.2"/>
  <path transform="matrix(.26970778 0 0 .26970778 -7.1289177 220.56049)" d="m188.96876 43.999995c72.64865 0 83.03125 10.356615 83.03125 82.937505v58.125c0 72.58059-10.3826 82.9375-83.03125 82.9375h-73.9375c-72.648654 0-83.031254-10.35691-83.031254-82.9375v-58.125c0-72.58089 10.3826-82.937505 83.031254-82.937505z" style="filter:url(#filter4569-2);opacity:.1"/>
  <path d="m23.895905 232.42763c-9.797337 0-15.39413 0.69699-18.544517 3.84334-3.150381 3.14634-3.849657 8.73736-3.849657 18.52555v15.67677c0 9.78815 0.699276 15.3792 3.849657 18.52555 3.150387 3.14636 8.7471787 3.84333 18.544517 3.84333h19.94152c9.797339 0 15.394134-0.69697 18.544517-3.84333 3.150384-3.14635 3.849659-8.7374 3.849659-18.52555v-15.67677c0-9.78819-0.699275-15.37921-3.849659-18.52555-3.150383-3.14635-8.74718-3.84334-18.544517-3.84334z" style="fill:#4d4d4d"/>
  <path d="m1.5017313 269.93387v0.53942c0 9.78815 0.699276 15.3792 3.849657 18.52555 3.150387 3.14636 8.7471787 3.84333 18.544517 3.84333h19.94152c9.797339 0 15.394134-0.69697 18.544517-3.84333 3.150384-3.14635 3.849659-8.7374 3.849659-18.52555v-0.53942c0 9.78815-0.699275 15.3792-3.849659 18.52555-3.150383 3.14636-8.747178 3.84334-18.544517 3.84334h-19.94152c-9.797338 0-15.39413-0.69698-18.544517-3.84334-3.150381-3.14635-3.849657-8.7374-3.849657-18.52555z" style="fill:#131313;opacity:.2"/>
  <g transform="matrix(.58486842 0 0 .58486842 -14.548074 221.86268)">
   <path transform="matrix(.45238095 0 0 .45238095 24.874097 12.659223)" d="m154.44727 77.925781c-11.04484 0-20.00586 8.966598-20.00586 20.021485 0 11.054894 8.96102 20.009764 20.00586 20.009764 11.05488 0 20.02148-8.95487 20.02148-20.009764 0-11.054887-8.9666-20.021485-20.02148-20.021485z" style="fill-opacity:.9813084;fill:#ffffff;opacity:.9"/>
   <path transform="matrix(.45238095 0 0 .45238095 24.874097 12.659223)" d="m5.6757812 113.47266v35.88476l53.294922 22.0332c2.008137 8.95089 8.162076 16.81266 17.244141 20.5918 14.859268 6.20103 31.989886-0.86293 38.175776-15.70703 1.6045-3.87502 2.35709-7.94807 2.2461-12.00977l36.86328-26.29687c0.30256 0.00951 0.60552 0.01563 0.9082 0.01563 22.05432 0 39.98633-17.94686 39.98633-39.996099 0-22.049237-17.93201-39.986328-39.98633-39.986328-22.05429 0-39.99218 17.937093-39.99218 39.986328 0 0.176555 2.6e-4 0.353004 0.00976 0.519531l-25.763671 37.357418c-4.172697-0.1817-8.359192 0.54495-12.330078 2.17969-1.750821 0.71147-3.390787 1.58854-4.929687 2.59766l-65.726563-27.16992zm148.73242-42.126957c14.68773 0 26.64453 11.959911 26.64453 26.642578 0 14.692769-11.9568 26.650389-26.64453 26.650389s-26.64062-11.95762-26.64062-26.650389c0-14.682667 11.95289-26.642578 26.64062-26.642578zm-66.724606 71.181637c2.814179 0.02271 5.67032 0.57731 8.427734 1.72266 5.560242 2.31088 9.872552 6.65461 12.158202 12.21484 2.2907 5.56025 2.28149 11.69237-0.0293 17.23243-4.78827 11.46359-17.987247 16.90789-29.460933 12.13476-5.29282-2.20492-9.28987-6.23647-11.595703-11.04492l13.017578 5.38867c8.461455 3.52183 18.170721-0.48533 21.687498-8.93164 3.52687-8.45137-0.47521-18.15981-8.931639-21.68164l-13.457031-5.56445c2.595958-0.9839 5.369414-1.49341 8.183594-1.47071z" style="fill-opacity:.9813084;fill:#ffffff;opacity:.9"/>
  </g>
  <path d="m1.5017313 262.60416v9.33914c0 9.14491 0.699276 14.36853 3.849657 17.30811 3.150387 2.93959 8.7471787 3.59076 18.544517 3.59076h19.94152c9.797339 0 15.394134-0.65117 18.544517-3.59076 3.150384-2.93958 3.849659-8.1632 3.849659-17.30811v-9.33914z" style="fill:#ffffff;opacity:.05"/>
  <path transform="matrix(.13485389 0 0 .13485389 -4.9712557 261.01666)" d="M 361.9375,-212 C 507.2348,-212 528,-191.28677 528,-46.125 V 70.125 C 528,215.28618 507.2348,236 361.9375,236 H 214.0625 C 68.7652,236 48,215.28618 48,70.125 V -46.125 C 48,-191.28677 68.7652,-212 214.0625,-212 Z" clip-path="url(#clipPath1082-3-5)" style="fill:none;opacity:.4;stroke-linecap:round;stroke-linejoin:round;stroke-width:8;stroke:url(#linearGradient906)"/>
 </g>
</svg>

<svg xmlns="http://www.w3.org/2000/svg" xmlns:xlink="http://www.w3.org/1999/xlink" width="256" height="256" version="1.1" viewBox="0 0 67.73 67.73">
 <defs>
  <linearGradient id="linearGradient1013">
   <stop offset="0" style="stop-color:#ffffff"/>
   <stop style="stop-color:#ffffff;stop-opacity:0.09803922" offset=".125"/>
   <stop style="stop-color:#000000;stop-opacity:0.09803922" offset=".925"/>
   <stop offset="1" style="stop-color:#000000;stop-opacity:0.49803922"/>
  </linearGradient>
  <clipPath id="clipPath1082-3-5" clipPathUnits="userSpaceOnUse">
   <path d="M 361.9375,-212 C 507.2348,-212 528,-191.28677 528,-46.125 V 70.125 C 528,215.28618 507.2348,236 361.9375,236 H 214.0625 C 68.7652,236 48,215.28618 48,70.125 V -46.125 C 48,-191.28677 68.7652,-212 214.0625,-212 Z" style="fill:#8c59d9"/>
  </clipPath>
  <filter style="color-interpolation-filters:sRGB" id="filter4569-2" width="1.023" height="1.025" x="-.01" y="-.01">
   <feGaussianBlur stdDeviation="1.16"/>
  </filter>
  <filter style="color-interpolation-filters:sRGB" id="filter913" width="1.046" height="1.05" x="-.02" y="-.03">
   <feGaussianBlur stdDeviation="2.32"/>
  </filter>
  <linearGradient id="linearGradient906" x1="296" x2="296" y1="-212" y2="236" gradientUnits="userSpaceOnUse" xlink:href="#linearGradient1013"/>
 </defs>
 <g transform="translate(0,-229.26666)">
  <path style="opacity:0.2;filter:url(#filter913)" d="m 188.96876,45.999995 c 72.64865,0 83.03125,10.356615 83.03125,82.937505 v 58.125 c 0,72.58059 -10.3826,82.9375 -83.03125,82.9375 h -73.9375 C 42.382606,270 32.000006,259.64309 32.000006,187.0625 v -58.125 c 0,-72.58089 10.3826,-82.937505 83.031254,-82.937505 z" transform="matrix(0.26970778,0,0,0.26970778,-7.1289177,220.56049)"/>
  <path d="m 188.96876,43.999995 c 72.64865,0 83.03125,10.356615 83.03125,82.937505 v 58.125 c 0,72.58059 -10.3826,82.9375 -83.03125,82.9375 h -73.9375 C 42.382606,268 32.000006,257.64309 32.000006,185.0625 v -58.125 c 0,-72.58089 10.3826,-82.937505 83.031254,-82.937505 z" transform="matrix(0.26970778,0,0,0.26970778,-7.1289177,220.56049)" style="opacity:0.1;filter:url(#filter4569-2)"/>
  <path style="fill:#4d4d4d" d="m 23.895905,232.42763 c -9.797337,0 -15.3941297,0.69699 -18.5445167,3.84334 -3.150381,3.14634 -3.849657,8.73736 -3.849657,18.52555 v 15.67677 c 0,9.78815 0.699276,15.3792 3.849657,18.52555 3.150387,3.14636 8.7471787,3.84333 18.5445167,3.84333 h 19.94152 c 9.797339,0 15.394134,-0.69697 18.544517,-3.84333 3.150384,-3.14635 3.849659,-8.7374 3.849659,-18.52555 v -15.67677 c 0,-9.78819 -0.699275,-15.37921 -3.849659,-18.52555 -3.150383,-3.14635 -8.74718,-3.84334 -18.544517,-3.84334 z"/>
  <path style="opacity:0.2;fill:#131313" d="m 1.5017313,269.93387 v 0.53942 c 0,9.78815 0.699276,15.3792 3.849657,18.52555 3.150387,3.14636 8.7471787,3.84333 18.5445167,3.84333 h 19.94152 c 9.797339,0 15.394134,-0.69697 18.544517,-3.84333 3.150384,-3.14635 3.849659,-8.7374 3.849659,-18.52555 v -0.53942 c 0,9.78815 -0.699275,15.3792 -3.849659,18.52555 -3.150383,3.14636 -8.747178,3.84334 -18.544517,3.84334 h -19.94152 c -9.797338,0 -15.3941297,-0.69698 -18.5445167,-3.84334 -3.150381,-3.14635 -3.849657,-8.7374 -3.849657,-18.52555 z"/>
  <g transform="matrix(0.58486842,0,0,0.58486842,-14.548074,221.86268)">
   <path style="opacity:0.9;fill:#ffffff;fill-opacity:0.9813084" d="m 154.44727,77.925781 c -11.04484,0 -20.00586,8.966598 -20.00586,20.021485 0,11.054894 8.96102,20.009764 20.00586,20.009764 11.05488,0 20.02148,-8.95487 20.02148,-20.009764 0,-11.054887 -8.9666,-20.021485 -20.02148,-20.021485 z" transform="matrix(0.45238095,0,0,0.45238095,24.874097,12.659223)"/>
   <path style="opacity:0.9;fill:#ffffff;fill-opacity:0.9813084" d="M 5.6757812 113.47266 L 5.6757812 149.35742 L 58.970703 171.39062 C 60.97884 180.34151 67.132779 188.20328 76.214844 191.98242 C 91.074112 198.18345 108.20473 191.11949 114.39062 176.27539 C 115.99512 172.40037 116.74771 168.32732 116.63672 164.26562 L 153.5 137.96875 C 153.80256 137.97826 154.10552 137.98438 154.4082 137.98438 C 176.46252 137.98438 194.39453 120.03752 194.39453 97.988281 C 194.39453 75.939044 176.46252 58.001953 154.4082 58.001953 C 132.35391 58.001953 114.41602 75.939046 114.41602 97.988281 C 114.41602 98.164836 114.41628 98.341285 114.42578 98.507812 L 88.662109 135.86523 C 84.489412 135.68353 80.302917 136.41018 76.332031 138.04492 C 74.58121 138.75639 72.941244 139.63346 71.402344 140.64258 L 5.6757812 113.47266 z M 154.4082 71.345703 C 169.09593 71.345703 181.05273 83.305614 181.05273 97.988281 C 181.05273 112.68105 169.09593 124.63867 154.4082 124.63867 C 139.72047 124.63867 127.76758 112.68105 127.76758 97.988281 C 127.76758 83.305614 139.72047 71.345703 154.4082 71.345703 z M 87.683594 142.52734 C 90.497773 142.55005 93.353914 143.10465 96.111328 144.25 C 101.67157 146.56088 105.98388 150.90461 108.26953 156.46484 C 110.56023 162.02509 110.55102 168.15721 108.24023 173.69727 C 103.45196 185.16086 90.252983 190.60516 78.779297 185.83203 C 73.486477 183.62711 69.489427 179.59556 67.183594 174.78711 L 80.201172 180.17578 C 88.662627 183.69761 98.371893 179.69045 101.88867 171.24414 C 105.41554 162.79277 101.41346 153.08433 92.957031 149.5625 L 79.5 143.99805 C 82.095958 143.01415 84.869414 142.50464 87.683594 142.52734 z" transform="matrix(0.45238095,0,0,0.45238095,24.874097,12.659223)"/>
  </g>
  <path style="opacity:0.05;fill:#ffffff" d="m 1.5017313,262.60416 v 9.33914 c 0,9.14491 0.699276,14.36853 3.849657,17.30811 3.150387,2.93959 8.7471787,3.59076 18.5445167,3.59076 h 19.94152 c 9.797339,0 15.394134,-0.65117 18.544517,-3.59076 3.150384,-2.93958 3.849659,-8.1632 3.849659,-17.30811 v -9.33914 z"/>
  <path d="M 361.9375,-212 C 507.2348,-212 528,-191.28677 528,-46.125 V 70.125 C 528,215.28618 507.2348,236 361.9375,236 H 214.0625 C 68.7652,236 48,215.28618 48,70.125 V -46.125 C 48,-191.28677 68.7652,-212 214.0625,-212 Z" clip-path="url(#clipPath1082-3-5)" transform="matrix(0.13485389,0,0,0.13485389,-4.9712557,261.01666)" style="opacity:0.4;fill:none;stroke:url(#linearGradient906);stroke-width:8;stroke-linecap:round;stroke-linejoin:round"/>
 </g>
</svg>
